neru-light-classic/22x22/emotes/face-crying-symbolic.svg

<svg xmlns="http://www.w3.org/2000/svg" width="16" height="16"><path d="M8 1C4.13 1 1 4.13 1 8c0 3.86 3.13 7 7 7s7-3.14 7-7c0-3.87-3.13-7-7-7zM5 5c.55 0 1 .45 1 1s-.45 1-1 1-1-.45-1-1 .45-1 1-1zm6 0c.55 0 1 .45 1 1s-.45 1-1 1-1-.45-1-1 .45-1 1-1zm1.1 1.9l.21.2.84.85c.27.27.45.63.45 1.05 0 .82-.67 1.5-1.5 1.5-.82 0-1.5-.68-1.5-1.5 0-.42.18-.78.45-1.05l.85-.85zM8 10c1.33 0 2.6.53 3.53 1.47l-.7.7a4.004 4.004 0 0 0-5.66 0l-.7-.7C5.4 10.53 6.67 10 8 10z" fill="#1e333d"/></svg>

<svg xmlns="http://www.w3.org/2000/svg" width="16" height="16" version="1.1">
 <path style="fill:#1e333d" d="M 8,1 C 4.13,1 1,4.13 1,8 1,11.86 4.13,15 8,15 11.87,15 15,11.86 15,8 15,4.13 11.87,1 8,1 Z M 5,5 C 5.55,5 6,5.45 6,6 6,6.55 5.55,7 5,7 4.45,7 4,6.55 4,6 4,5.45 4.45,5 5,5 Z M 11,5 C 11.55,5 12,5.45 12,6 12,6.55 11.55,7 11,7 10.45,7 10,6.55 10,6 10,5.45 10.45,5 11,5 Z M 12.1,6.9 12.31,7.1 13.15,7.95 C 13.42,8.22 13.6,8.58 13.6,9 13.6,9.82 12.93,10.5 12.1,10.5 11.28,10.5 10.6,9.82 10.6,9 10.6,8.58 10.78,8.22 11.05,7.95 L 11.9,7.1 Z M 8,10 C 9.33,10 10.6,10.53 11.53,11.47 L 10.83,12.17 C 10.08,11.42 9.06,11 8,11 6.94,11 5.92,11.42 5.17,12.17 L 4.47,11.47 C 5.4,10.53 6.67,10 8,10 Z"/>
</svg>
